src/assets/svg/icons/fa/nuevos/classic/thin/house-signal classic thin.svg

<svg xmlns="http://www.w3.org/2000/svg" viewBox="0 0 576 512"><!--! Font Awesome Pro 6.4.0 by @fontawesome - https://fontawesome.com License - https://fontawesome.com/license (Commercial License) Copyright 2023 Fonticons, Inc. --><path d="M330.8 1.9c3-2.6 7.4-2.6 10.4 0l232 200c3.3 2.9 3.7 7.9 .8 11.3s-7.9 3.7-11.3 .8L512 170.3V360c0 30.9-25.1 56-56 56H278.1c-1.5-5.4-3.2-10.7-5.1-16H456c22.1 0 40-17.9 40-40V156.5L336 18.6 176 156.5V272.1c-5.2-3.7-10.5-7.2-16-10.4V170.3l-50.8 43.8c-3.3 2.9-8.4 2.5-11.3-.8s-2.5-8.4 .8-11.3l232-200zM296 176h80c13.3 0 24 10.7 24 24v80c0 13.3-10.7 24-24 24H296c-13.3 0-24-10.7-24-24V200c0-13.3 10.7-24 24-24zm-8 24v80c0 4.4 3.6 8 8 8h80c4.4 0 8-3.6 8-8V200c0-4.4-3.6-8-8-8H296c-4.4 0-8 3.6-8 8zM8 256c137 0 248 111 248 248c0 4.4-3.6 8-8 8s-8-3.6-8-8C240 375.9 136.1 272 8 272c-4.4 0-8-3.6-8-8s3.6-8 8-8zM48 480a16 16 0 1 0 -32 0 16 16 0 1 0 32 0zM0 480a32 32 0 1 1 64 0A32 32 0 1 1 0 480zM0 360c0-4.4 3.6-8 8-8c83.9 0 152 68.1 152 152c0 4.4-3.6 8-8 8s-8-3.6-8-8c0-75.1-60.9-136-136-136c-4.4 0-8-3.6-8-8z"/></svg>

<svg xmlns="http://www.w3.org/2000/svg" viewBox="0 0 576 512"><path d="M330.8 1.941C333.8-.6469 338.2-.6469 341.2 1.941L573.2 201.9C576.6 204.8 576.9 209.9 574.1 213.2C571.2 216.6 566.1 216.9 562.8 214.1L512 170.3V360C512 390.9 486.9 416 456 416H296.4C295.1 410.6 293.7 405.3 292 400H456C478.1 400 496 382.1 496 360V156.5L336 18.56L176 156.5V249.2C170.8 245.9 165.4 242.8 160 239.9V170.3L109.2 214.1C105.9 216.9 100.8 216.6 97.94 213.2C95.06 209.9 95.43 204.8 98.78 201.9L330.8 1.941zM376 176C389.3 176 400 186.7 400 200V280C400 293.3 389.3 304 376 304H296C282.7 304 271.1 293.3 271.1 280V200C271.1 186.7 282.7 176 296 176H376zM287.1 280C287.1 284.4 291.6 288 296 288H376C380.4 288 384 284.4 384 280V200C384 195.6 380.4 192 376 192H296C291.6 192 287.1 195.6 287.1 200V280zM256 504C256 508.4 252.4 512 248 512C243.6 512 240 508.4 240 504C240 375.9 136.1 272 8 272C3.582 272 0 268.4 0 264C0 259.6 3.582 256 8 256C144.1 256 256 367 256 504zM64 480C64 497.7 49.67 512 32 512C14.33 512 0 497.7 0 480C0 462.3 14.33 448 32 448C49.67 448 64 462.3 64 480zM32 464C23.16 464 16 471.2 16 480C16 488.8 23.16 496 32 496C40.84 496 48 488.8 48 480C48 471.2 40.84 464 32 464zM0 360C0 355.6 3.582 352 8 352C91.95 352 160 420.1 160 504C160 508.4 156.4 512 152 512C147.6 512 144 508.4 144 504C144 428.9 83.11 368 8 368C3.582 368 0 364.4 0 360z"/></svg>
